src/components/logo/logo-mark.svg

<svg width="37" height="36" viewBox="0 0 37 36" fill="none" xmlns="http://www.w3.org/2000/svg">
<path fill-rule="evenodd" clip-rule="evenodd" d="M31.0838 15.4184C31.0838 18.9154 29.8836 22.1341 27.9234 24.7171L34.6842 31.4329C35.6843 32.4263 35.6843 34.0158 34.6842 35.0093C34.2041 35.5259 33.5241 35.7643 32.884 35.7643C32.2439 35.7643 31.5638 35.4862 31.0838 35.0093L24.2829 28.2538L24.2029 28.1743C21.7226 29.8433 18.7223 30.8368 15.5219 30.8368C6.96084 30.8368 0 23.9224 0 15.4184C0 6.91444 6.96084 0 15.5219 0C24.0829 0 31.0838 6.91444 31.0838 15.4184ZM15.5155 29.8228C23.5508 29.8228 30.0646 23.3688 30.0646 15.4074C30.0646 7.44592 23.5508 0.991902 15.5155 0.991902C7.48029 0.991902 0.96644 7.44592 0.96644 15.4074C0.96644 23.3688 7.48029 29.8228 15.5155 29.8228Z" fill="#1E2537"/>
<path fill-rule="evenodd" clip-rule="evenodd" d="M23.3738 9.88546C24.3333 9.88546 25.1111 9.11282 25.1111 8.15972C25.09 7.22167 24.3184 6.47218 23.3738 6.47218C22.4292 6.47218 21.6576 7.22167 21.6365 8.15972C21.6365 9.11282 22.4143 9.88546 23.3738 9.88546ZM21.5755 7.80549L17.1686 6.77533L17.1687 6.77523L21.5755 7.80549ZM17.1686 6.77533L15.457 11.9637L17.1682 6.77523L17.1686 6.77533ZM18.9143 21.4791C18.0439 22.3428 16.6422 22.5093 15.4653 22.5093C14.2897 22.5093 12.8867 22.3428 12.0176 21.4791H18.9143ZM5.56734 17.4939C4.76627 17.1446 4.24903 16.3577 4.24933 15.4887C4.24877 14.5686 4.82769 13.7463 5.698 13.4312C6.56831 13.1161 7.54411 13.3753 8.1398 14.08L5.56734 17.4939ZM25.2064 13.423C24.3225 13.116 23.3398 13.3973 22.756 14.1246L25.2762 17.5302C26.124 17.203 26.6825 16.3922 26.6826 15.4887C26.6823 14.5585 26.0903 13.7301 25.2064 13.423Z" fill="white"/>
<path fill-rule="evenodd" clip-rule="evenodd" d="M5.00173 18.4999C5.00173 22.3065 9.67421 25.4033 15.4178 25.4033C21.1615 25.4033 25.8344 22.3065 25.8352 18.4999C25.8352 18.2542 25.8157 18.012 25.7778 17.7728C26.6096 17.3105 27.1232 16.436 27.1189 15.4892C27.1172 14.042 25.9366 12.8693 24.4798 12.8677C23.8167 12.8663 23.1776 13.1143 22.6911 13.5619C20.9494 12.4352 18.6164 11.7081 16.0331 11.6082L17.4582 7.28734L21.2011 8.16275C21.2037 9.35322 22.1754 10.3172 23.3738 10.3184C24.5732 10.317 25.5451 9.35154 25.5466 8.16016C25.5454 6.96861 24.5734 6.0029 23.3738 6.00146C22.5029 6.00252 21.7165 6.51903 21.3744 7.31459L17.2723 6.35526L17.2631 6.3531L16.8791 6.26314L15.1191 11.5987C12.4383 11.6488 10.0082 12.3737 8.20163 13.5255C7.72223 13.1034 7.10263 12.8672 6.45255 12.8672C4.99589 12.8691 3.81558 14.0418 3.8139 15.4887C3.81395 16.3983 4.28832 17.243 5.06748 17.7209C5.02393 17.9766 5.00173 18.2369 5.00173 18.4999ZM5.87257 18.4999C5.87257 18.2248 5.90176 17.9506 5.95965 17.6816C5.9615 17.6785 5.96291 17.6752 5.96436 17.6719L5.96618 17.6677C5.9894 17.6154 6.00184 17.5589 6.00276 17.5017C6.30537 16.3555 7.12048 15.317 8.29306 14.4853C8.36023 14.4597 8.42014 14.4183 8.46767 14.3646C10.2098 13.1934 12.6812 12.4611 15.4178 12.4611C18.1823 12.4611 20.6751 13.2081 22.4198 14.3996C22.469 14.4594 22.5336 14.5048 22.6066 14.5311C23.7544 15.3624 24.549 16.394 24.8403 17.5302C24.8403 17.5953 24.855 17.6596 24.8834 17.7183C24.9361 17.9744 24.9631 18.2352 24.9631 18.4999C24.9631 21.8294 20.6812 24.5383 15.4178 24.5383C10.1545 24.5383 5.87257 21.8298 5.87257 18.4999ZM23.4187 14.0835C24.4284 14.8858 25.1695 15.8412 25.5483 16.8896C25.9907 16.5583 26.2497 16.0391 26.2472 15.4887C26.2462 14.5191 25.4551 13.7332 24.4789 13.7323C24.0965 13.7317 23.7243 13.855 23.4187 14.0835ZM4.68474 15.4887C4.6857 14.5192 5.47654 13.7335 6.45255 13.7323C6.81402 13.7322 7.16684 13.8421 7.46359 14.0471C6.44993 14.8417 5.70145 15.7893 5.31001 16.8295C4.91987 16.5008 4.68474 16.0134 4.68474 15.4887ZM23.3734 6.86607C22.6558 6.86607 22.0715 7.4465 22.0715 8.15972C22.0715 8.87294 22.6558 9.45295 23.3734 9.45295C24.091 9.45295 24.6753 8.87294 24.6753 8.15972C24.6753 7.4465 24.0914 6.86607 23.3734 6.86607ZM11.7094 21.7844C12.4927 22.563 13.7214 22.9414 15.4653 22.9414C17.2091 22.9414 18.4375 22.563 19.2217 21.7844C19.3316 21.6753 19.3746 21.5161 19.3344 21.3669C19.2943 21.2177 19.177 21.1011 19.0268 21.0611C18.8767 21.0211 18.7164 21.0637 18.6064 21.1729C17.9938 21.7805 16.9662 22.0764 15.4653 22.0764C13.964 22.0764 12.9372 21.7805 12.3255 21.1729C12.1555 21.0038 11.8797 21.0038 11.7096 21.1726C11.5394 21.3415 11.5393 21.6154 11.7094 21.7844Z" fill="#1E2537"/>
<path fill-rule="evenodd" clip-rule="evenodd" d="M10.33 17.2426C10.33 16.362 11.0741 15.6228 11.9606 15.6228C12.8471 15.6228 13.5664 16.362 13.5664 17.2426C13.5664 18.1232 12.8476 18.8377 11.9606 18.8377C11.0737 18.8377 10.33 18.1232 10.33 17.2426ZM17.3637 17.2426C17.3637 16.3611 18.1087 15.6228 18.9961 15.6228C19.8831 15.6228 20.6019 16.3611 20.6019 17.2426C20.6019 18.1236 19.8835 18.8377 18.9961 18.8377C18.1087 18.8377 17.3637 18.1236 17.3637 17.2426Z" fill="#FF4500"/>
</svg>

<svg width="37" height="36" fill="none" xmlns="http://www.w3.org/2000/svg"><path fill-rule="evenodd" clip-rule="evenodd" d="M31.084 15.418c0 3.497-1.2 6.716-3.16 9.3l6.76 6.715c1 .993 1 2.583 0 3.576-.48.517-1.16.755-1.8.755-.64 0-1.32-.278-1.8-.755l-6.801-6.755-.08-.08a15.546 15.546 0 0 1-8.681 2.663C6.96 30.837 0 23.922 0 15.418 0 6.914 6.96 0 15.522 0c8.56 0 15.562 6.914 15.562 15.418zM15.515 29.823c8.036 0 14.55-6.454 14.55-14.416 0-7.961-6.514-14.415-14.55-14.415C7.48.992.966 7.446.966 15.407c0 7.962 6.514 14.416 14.55 14.416z" fill="#1E2537"/><path fill-rule="evenodd" clip-rule="evenodd" d="M23.374 9.885c.96 0 1.737-.772 1.737-1.725a1.732 1.732 0 0 0-1.737-1.688c-.945 0-1.716.75-1.737 1.688 0 .953.777 1.725 1.737 1.725zm-1.798-2.08-4.407-1.03 4.407 1.03zm-4.407-1.03-1.712 5.189 1.711-5.189zm1.745 14.704c-.87.864-2.272 1.03-3.449 1.03-1.175 0-2.578-.166-3.447-1.03h6.896zM5.567 17.494a2.189 2.189 0 0 1-1.318-2.005c0-.92.579-1.743 1.449-2.058a2.213 2.213 0 0 1 2.442.649l-2.573 3.414zm19.64-4.071a2.213 2.213 0 0 0-2.451.702l2.52 3.405a2.19 2.19 0 0 0 1.407-2.041 2.19 2.19 0 0 0-1.477-2.066z" fill="#fff"/><path fill-rule="evenodd" clip-rule="evenodd" d="M5.002 18.5c0 3.806 4.672 6.903 10.416 6.903 5.744 0 10.416-3.096 10.417-6.903 0-.246-.02-.488-.057-.727a2.6 2.6 0 0 0 1.34-2.284 2.633 2.633 0 0 0-2.638-2.621 2.634 2.634 0 0 0-1.789.694c-1.742-1.127-4.075-1.854-6.658-1.954l1.425-4.32 3.743.875a2.168 2.168 0 0 0 2.173 2.155 2.168 2.168 0 0 0 2.173-2.158 2.168 2.168 0 0 0-2.173-2.159 2.177 2.177 0 0 0-2 1.314l-4.102-.96-.009-.002-.384-.09-1.76 5.336c-2.68.05-5.11.775-6.917 1.926a2.643 2.643 0 0 0-1.75-.658 2.633 2.633 0 0 0-2.638 2.622c0 .91.474 1.754 1.253 2.232a4.637 4.637 0 0 0-.065.779zm.87 0c0-.275.03-.55.088-.818l.004-.01.002-.004a.426.426 0 0 0 .037-.166c.302-1.146 1.117-2.185 2.29-3.017a.445.445 0 0 0 .175-.12c1.742-1.172 4.213-1.904 6.95-1.904 2.764 0 5.257.747 7.002 1.939.049.06.114.105.187.131 1.147.831 1.942 1.863 2.233 3 0 .064.015.129.043.187.053.256.08.517.08.782 0 3.33-4.282 6.038-9.545 6.038S5.873 21.83 5.873 18.5zm17.547-4.416c1.01.802 1.75 1.757 2.13 2.806a1.74 1.74 0 0 0 .698-1.401 1.764 1.764 0 0 0-1.768-1.757c-.383 0-.755.123-1.06.352zM4.685 15.489a1.764 1.764 0 0 1 1.768-1.757c.361 0 .714.11 1.01.315-1.013.795-1.762 1.742-2.153 2.782a1.753 1.753 0 0 1-.625-1.34zm18.688-8.623a1.3 1.3 0 0 0-1.302 1.294 1.3 1.3 0 0 0 1.302 1.293 1.3 1.3 0 0 0 1.302-1.293 1.3 1.3 0 0 0-1.302-1.294zM11.71 21.784c.784.779 2.012 1.157 3.756 1.157 1.744 0 2.973-.378 3.757-1.157a.43.43 0 0 0-.195-.723.437.437 0 0 0-.42.112c-.613.608-1.64.903-3.142.903-1.501 0-2.528-.296-3.14-.903a.438.438 0 0 0-.615 0 .43.43 0 0 0 0 .611z" fill="#1E2537"/><path fill-rule="evenodd" clip-rule="evenodd" d="M10.33 17.243c0-.881.744-1.62 1.63-1.62.887 0 1.606.739 1.606 1.62a1.6 1.6 0 0 1-1.605 1.595c-.887 0-1.631-.715-1.631-1.595zm7.034 0c0-.882.745-1.62 1.632-1.62.887 0 1.606.738 1.606 1.62a1.6 1.6 0 0 1-1.606 1.595c-.887 0-1.632-.714-1.632-1.595z" fill="#FF4500"/></svg>
